icons/arrow-tray-bottom-right.svg

<svg xmlns="http://www.w3.org/2000/svg" width="24" height="24" viewBox="0 0 24 24">
  <path d="M21,14 C21.5522847,14 22,14.4477153 22,15 L22,15 L22,19 L21.9949073,19.1762728 C21.9036609,20.75108 20.5976809,22 19,22 L19,22 L5,22 L4.82372721,21.9949073 C3.24891996,21.9036609 2,20.5976809 2,19 L2,19 L2,15 L2.00672773,14.8833789 C2.06449284,14.3860402 2.48716416,14 3,14 C3.55228475,14 4,14.4477153 4,15 L4,15 L4,19 L4.00672773,19.1166211 C4.06449284,19.6139598 4.48716416,20 5,20 L5,20 L19,20 L19.1166211,19.9932723 C19.6139598,19.9355072 20,19.5128358 20,19 L20,19 L20,15 L20.0067277,14.8833789 C20.0644928,14.3860402 20.4871642,14 21,14 Z M15.998,13.059 L15.997,13.075 L15.9889807,13.1489612 L15.9889807,13.1489612 C15.9863719,13.165949 15.9832978,13.1833753 15.9797599,13.2007258 C15.9753602,13.2227461 15.9701664,13.2444365 15.964279,13.2658396 C15.9599023,13.2814633 15.9552713,13.2968513 15.9502619,13.3121425 C15.9438775,13.3317977 15.9366843,13.3515792 15.928896,13.3710585 L15.9063266,13.4232215 L15.9063266,13.4232215 C15.8966234,13.4438914 15.8862061,13.4642939 15.8751242,13.484277 C15.8685012,13.4963944 15.8613931,13.5086131 15.8540045,13.5207088 C15.8382813,13.546275 15.8215099,13.5711307 15.8036865,13.5951593 C15.7992821,13.6012086 15.7948255,13.6070733 15.7902954,13.6128994 L15.7073018,13.7068684 L15.7073018,13.7068684 L15.623,13.78 L15.7071068,13.7071068 C15.6717127,13.7425008 15.6343256,13.774687 15.5953066,13.8036654 C15.5711307,13.8215099 15.546275,13.8382813 15.5206602,13.8539326 L15.4840621,13.8753288 L15.4840621,13.8753288 C15.4642939,13.8862061 15.4438914,13.8966234 15.4230991,13.9063462 L15.371336,13.9287745 L15.371336,13.9287745 C15.3515792,13.9366843 15.3317977,13.9438775 15.3117364,13.9504533 L15.2918437,13.9566726 L15.2918437,13.9566726 L15.2708729,13.9628803 C15.2471983,13.9695267 15.2231682,13.9753235 15.1988177,13.9802356 L15.1764315,13.9844021 L15.1764315,13.9844021 L15.1539846,13.9882174 C15.1416037,13.9901309 15.1291477,13.9918173 15.1166211,13.9932723 L15.0801904,13.9967993 C15.0731418,13.9973629 15.0660884,13.9978521 15.0590314,13.9982669 L15.033,13.998 L15,14 L9,14 C8.44771525,14 8,13.5522847 8,13 C8,12.4871642 8.38604019,12.0644928 8.88337887,12.0067277 L9,12 L12.585,12 L5.29289322,4.70710678 C4.90236893,4.31658249 4.90236893,3.68341751 5.29289322,3.29289322 C5.65337718,2.93240926 6.22060824,2.90467972 6.61289944,3.20970461 L6.70710678,3.29289322 L14,10.585 L14,7 C14,6.44771525 14.4477153,6 15,6 C15.5128358,6 15.9355072,6.38604019 15.9932723,6.88337887 L16,7 L16,13 L15.9994829,13.0322546 L15.998,13.059 Z"/>
</svg>

<svg xmlns="http://www.w3.org/2000/svg" viewBox="0 0 24 24">
  <path d="M21 14a1 1 0 0 1 1 1v4.18A3 3 0 0 1 19 22H4.82A3 3 0 0 1 2 19v-4.12A1 1 0 0 1 4 15v4.12A1 1 0 0 0 5 20h14.12a1 1 0 0 0 .88-1v-4.12a1 1 0 0 1 1-.88zm-5-.94v.01l-.01.08a1.08 1.08 0 0 1-.06.22l-.02.05a1.02 1.02 0 0 1-.12.2l-.08.09-.09.07.09-.07a1 1 0 0 1-.19.14l-.04.03-.06.03-.05.02a.99.99 0 0 1-.06.02h-.02l-.02.01a1 1 0 0 1-.07.02h-.05a1 1 0 0 1-.03.01h-.09L15 14H9a1 1 0 0 1-.12-2h3.71l-7.3-7.3a1 1 0 0 1 1.32-1.49l.1.08L14 10.6V7a1 1 0 0 1 2-.12v6.18z"/>
</svg>
